X: 41318
T: Tuolpagorni
R: three-two
M: 3/2
K: Amajor
e2fe c2A2 A4|e2fe d2B2 B4|a2a2 gabg e2dc|d2f2 fedc B2cd|
e2fe c2A2 A4|e2fe d2B2 B4|g2ag f2e2 e2dc|1 B2AG A4 ABcd:|2 B2AG A4 AAce||
|:a3a g2a2|z2c2 d2e2|f3f e2f2|z2d2 d2c2|B3c dcde|fedc B2a2|agbg e2fg|
a3a g2a2|z2c2 d2e2|f3f e2f2|z2d2 d2c2|B2ag f2e2|e2dc B2AG|1 A4 AAce:|2 A4 A2z2||

